symbols/web/agriculture/materialsymbolsrounded/agriculture_grad200_20px.svg

<svg xmlns="http://www.w3.org/2000/svg" height="20" width="20"><path d="M3.312 7.396q-.374 0-.687-.313-.313-.312-.313-.687 0-.375.313-.667.313-.291.687-.291h2.459q.791 0 1.364.562.573.562.511 1.396Zm1.646 7.562q1.021 0 1.74-.718.719-.719.719-1.74t-.719-1.74q-.719-.718-1.74-.718-1.02 0-1.739.718-.719.719-.719 1.74t.719 1.74q.719.718 1.739.718ZM16.354 15q.479 0 .813-.344.333-.344.333-.802 0-.479-.333-.812-.334-.334-.813-.334-.458 0-.802.334-.344.333-.344.812 0 .458.344.802.344.344.802.344ZM4.958 13.875q-.583 0-.979-.396t-.396-.979q0-.583.396-.979t.979-.396q.584 0 .98.396.395.396.395.979t-.395.979q-.396.396-.98.396Zm11.813-3.104q.687.146 1.073.364.385.219.885.698V6.708q0-.833-.562-1.396-.563-.562-1.396-.562h-5.542l-.833-.854.875-.875q.125-.125.146-.313.021-.187-.105-.312-.145-.125-.354-.136-.208-.01-.333.115L8.333 4.708q-.125.125-.125.313 0 .187.104.312.126.125.323.115.198-.01.323-.136l.834-.854.875.875v2.146q0 .646-.427 1.063-.428.416-1.052.416H7.625q.625.521.896.896t.562 1.063h.084q1.416 0 2.427-1.011 1.01-1.01 1.01-2.427v-.771h4.167Zm-3.5 2.729q.125-.708.333-1.104.208-.396.688-.854H9.271q.125.583.114.979-.01.396-.135.979Zm3.083 3.458q-1.292 0-2.198-.906-.906-.906-.906-2.198 0-1.292.906-2.198.906-.906 2.198-.906 1.292 0 2.198.906.906.906.906 2.198 0 1.292-.906 2.198-.906.906-2.198.906Zm-11.396-.041q-1.875 0-3.146-1.271Q.542 14.375.542 12.5t1.27-3.146q1.271-1.271 3.146-1.271t3.146 1.271q1.271 1.271 1.271 3.146t-1.271 3.146q-1.271 1.271-3.146 1.271Zm8.417-7.792Z"/></svg>

<svg xmlns="http://www.w3.org/2000/svg" height="20" width="20"><path d="M3.312 7.396Q2.938 7.396 2.625 7.083Q2.312 6.771 2.312 6.396Q2.312 6.021 2.625 5.729Q2.938 5.438 3.312 5.438H5.771Q6.562 5.438 7.135 6Q7.708 6.562 7.646 7.396ZM4.958 14.958Q5.979 14.958 6.698 14.24Q7.417 13.521 7.417 12.5Q7.417 11.479 6.698 10.76Q5.979 10.042 4.958 10.042Q3.938 10.042 3.219 10.76Q2.5 11.479 2.5 12.5Q2.5 13.521 3.219 14.24Q3.938 14.958 4.958 14.958ZM16.354 15Q16.833 15 17.167 14.656Q17.5 14.312 17.5 13.854Q17.5 13.375 17.167 13.042Q16.833 12.708 16.354 12.708Q15.896 12.708 15.552 13.042Q15.208 13.375 15.208 13.854Q15.208 14.312 15.552 14.656Q15.896 15 16.354 15ZM4.958 13.875Q4.375 13.875 3.979 13.479Q3.583 13.083 3.583 12.5Q3.583 11.917 3.979 11.521Q4.375 11.125 4.958 11.125Q5.542 11.125 5.938 11.521Q6.333 11.917 6.333 12.5Q6.333 13.083 5.938 13.479Q5.542 13.875 4.958 13.875ZM16.771 10.771Q17.458 10.917 17.844 11.135Q18.229 11.354 18.729 11.833V6.708Q18.729 5.875 18.167 5.312Q17.604 4.75 16.771 4.75H11.229L10.396 3.896L11.271 3.021Q11.396 2.896 11.417 2.708Q11.438 2.521 11.312 2.396Q11.167 2.271 10.958 2.26Q10.75 2.25 10.625 2.375L8.333 4.708Q8.208 4.833 8.208 5.021Q8.208 5.208 8.312 5.333Q8.438 5.458 8.635 5.448Q8.833 5.438 8.958 5.312L9.792 4.458L10.667 5.333V7.479Q10.667 8.125 10.24 8.542Q9.812 8.958 9.188 8.958H7.625Q8.25 9.479 8.521 9.854Q8.792 10.229 9.083 10.917H9.167Q10.583 10.917 11.594 9.906Q12.604 8.896 12.604 7.479V6.708H16.771Q16.771 6.708 16.771 6.708Q16.771 6.708 16.771 6.708ZM13.271 13.5Q13.396 12.792 13.604 12.396Q13.812 12 14.292 11.542H9.271Q9.396 12.125 9.385 12.521Q9.375 12.917 9.25 13.5ZM16.354 16.958Q15.062 16.958 14.156 16.052Q13.25 15.146 13.25 13.854Q13.25 12.562 14.156 11.656Q15.062 10.75 16.354 10.75Q17.646 10.75 18.552 11.656Q19.458 12.562 19.458 13.854Q19.458 15.146 18.552 16.052Q17.646 16.958 16.354 16.958ZM4.958 16.917Q3.083 16.917 1.812 15.646Q0.542 14.375 0.542 12.5Q0.542 10.625 1.812 9.354Q3.083 8.083 4.958 8.083Q6.833 8.083 8.104 9.354Q9.375 10.625 9.375 12.5Q9.375 14.375 8.104 15.646Q6.833 16.917 4.958 16.917ZM13.375 9.125Q13.375 9.125 13.375 9.125Q13.375 9.125 13.375 9.125Q13.375 9.125 13.375 9.125Q13.375 9.125 13.375 9.125Q13.375 9.125 13.375 9.125Q13.375 9.125 13.375 9.125Q13.375 9.125 13.375 9.125Q13.375 9.125 13.375 9.125Z"/></svg>
